sprites/streets-v8/_svg/playground-15.svg

<?xml version="1.0" encoding="UTF-8" standalone="no"?>
<svg
   xmlns:dc="http://purl.org/dc/elements/1.1/"
   xmlns:cc="http://creativecommons.org/ns#"
   xmlns:rdf="http://www.w3.org/1999/02/22-rdf-syntax-ns#"
   xmlns:svg="http://www.w3.org/2000/svg"
   xmlns="http://www.w3.org/2000/svg"
   id="svg2"
   width="23"
   height="23"
   viewBox="0 0 23 23"
   version="1.1">
  <metadata
     id="metadata14">
    <rdf:RDF>
      <cc:Work
         rdf:about="">
        <dc:format>image/svg+xml</dc:format>
        <dc:type
           rdf:resource="http://purl.org/dc/dcmitype/StillImage" />
      </cc:Work>
    </rdf:RDF>
  </metadata>
  <defs
     id="defs12" />
  <ellipse
     id="ellipse4"
     ry="11.5"
     rx="11.5"
     cy="11.5"
     cx="11.5"
     style="fill:#ffffff;stroke:none;" />
  <ellipse
     id="ellipse6"
     ry="10.5"
     rx="10.5"
     cy="11.5"
     cx="11.5"
     style="fill:#7e9a4c;stroke:none;" />
  <g
     id="g8"
     transform="translate(4,4)">
    <metadata     id="metadata4155"><rdf:RDF><cc:Work         rdf:about=""><dc:format>image/svg+xml</dc:format><dc:type           rdf:resource="http://purl.org/dc/dcmitype/StillImage" /><dc:title /></cc:Work></rdf:RDF></metadata><defs     id="defs4153" /><path     id="path5205"     d="m 3.5,1.5 -2.5,2 0,9 c -0.009563,0.676161 1.0095626,0.676161 1,0 l 0,-0.5 3,0 0,0.5 c -0.00956,0.676161 1.0095626,0.676161 1,0 L 6,8 6,6 6,3.5 Z m 3,4.5507812 0,2.0097657 c 0.3097838,0.075006 0.5427037,0.2217031 0.7910156,0.453125 0.3657234,0.340847 0.7225283,0.8867183 1.109375,1.5117191 0.3868467,0.625 0.8051125,1.329128 1.4453125,1.925781 C 10.382663,12.451608 11,13 12,13 c 0,0 -0.5,0 -0.5,-0.75 l 0,-1.513672 c -0.09668,-0.07685 -0.191448,-0.157205 -0.291016,-0.25 C 10.843261,10.145482 10.486456,9.5996094 10.099609,8.9746094 9.7127643,8.3496094 9.2944969,7.6454811 8.6542969,7.0488281 8.1157646,6.5469273 7.3723067,6.1650628 6.5,6.0507812 Z M 2,8 5,8 5,9 2,9 Z m 0,2 3,0 0,1 -3,0 z m 10,1 0,1.25 c 0,0 0,0.75 1,0.75 1.009399,0 1,-0.75 1,-0.75 L 14,11 Z"     style="color:#000000;font-style:normal;font-variant:normal;font-weight:normal;font-stretch:normal;font-size:medium;line-height:normal;font-family:sans-serif;text-indent:0;text-align:start;text-decoration:none;text-decoration-line:none;text-decoration-style:solid;text-decoration-color:#000000;letter-spacing:normal;word-spacing:normal;text-transform:none;direction:ltr;block-progression:tb;writing-mode:lr-tb;baseline-shift:baseline;text-anchor:start;white-space:normal;shape-padding:0;clip-rule:nonzero;display:inline;overflow:visible;visibility:visible;opacity:1;isolation:auto;mix-blend-mode:normal;color-interpolation:sRGB;color-interpolation-filters:linearRGB;solid-color:#000000;solid-opacity:1;fill:#ffffff;fill-opacity:1;fill-rule:nonzero;stroke:none;stroke-width:2;stroke-linecap:round;stroke-linejoin:round;stroke-miterlimit:4;stroke-dasharray:none;stroke-dashoffset:0;stroke-opacity:1;marker:none;color-rendering:auto;image-rendering:auto;shape-rendering:auto;text-rendering:auto;enable-background:accumulate" /><path     style="fill:#ffffff;fill-rule:evenodd;stroke:none;stroke-width:1px;stroke-linecap:butt;stroke-linejoin:miter;stroke-opacity:1"     d="m 1,7.799939 0,-1.300015 3.9,0 0,1.300015 z"     id="path5209" /><path     d=""     style="opacity:1;fill:#ffffff;fill-opacity:1;stroke:none;stroke-width:2;stroke-linecap:round;stroke-linejoin:round;stroke-miterlimit:4;stroke-dasharray:none;stroke-dashoffset:0;stroke-opacity:1;marker:none"     id="path5213"     ry="1.5000179"     rx="1.5"     cy="5.5000181"     cx="3.4999998" /><path     d=""     style="opacity:1;fill:#ffffff;fill-opacity:1;stroke:none;stroke-width:2;stroke-linecap:round;stroke-linejoin:round;stroke-miterlimit:4;stroke-dasharray:none;stroke-dashoffset:0;stroke-opacity:1;marker:none"     id="path5239"     ry="1.5000179"     rx="1.5"     cy="5.5000181"     cx="3.4999998" /><ellipse     cx="3.4999998"     cy="5.5000181"     rx="1.5"     ry="1.5000179"     id="path4804"     style="opacity:1;fill:#ffffff;fill-opacity:1;stroke:none;stroke-width:2;stroke-linecap:round;stroke-linejoin:round;stroke-miterlimit:4;stroke-dasharray:none;stroke-dashoffset:0;stroke-opacity:1;marker:none" />
  </g>
</svg>

<?xml version="1.0" encoding="utf-8"?>
<!-- Generator: Adobe Illustrator 17.1.0, SVG Export Plug-In . SVG Version: 6.00 Build 0)  -->
<!DOCTYPE svg PUBLIC "-//W3C//DTD SVG 1.1//EN" "http://www.w3.org/Graphics/SVG/1.1/DTD/svg11.dtd">
<svg version="1.1"
	 id="svg2" xmlns:svg="http://www.w3.org/2000/svg" xmlns:cc="http://creativecommons.org/ns#" xmlns:dc="http://purl.org/dc/elements/1.1/" xmlns:rdf="http://www.w3.org/1999/02/22-rdf-syntax-ns#"
	 xmlns="http://www.w3.org/2000/svg" xmlns:xlink="http://www.w3.org/1999/xlink" x="0px" y="0px" width="23px" height="23px"
	 viewBox="0 0 23 23" enable-background="new 0 0 23 23" xml:space="preserve">
<ellipse id="ellipse4" fill="#FFFFFF" cx="11.5" cy="11.5" rx="11.5" ry="11.5"/>
<ellipse id="ellipse6" fill="#7E9A4C" cx="11.5" cy="11.5" rx="10.5" ry="10.5"/>
<g id="g8" transform="translate(4,4)">
	<path id="path5205" fill="#FFFFFF" d="M3.5,1.5L1,3.5v9c0,0.7,1,0.7,1,0V12h3v0.5c0,0.7,1,0.7,1,0V8V6V3.5L3.5,1.5z M6.5,6.1v2
		c0.3,0,0.5,0.2,0.8,0.4C7.7,8.9,8,9.4,8.4,10s0.8,1.3,1.4,1.9c0.5,0.5,1.2,1,2.2,1c0,0-0.5,0-0.5-0.8v-1.5
		c-0.1-0.1-0.2-0.2-0.3-0.2c-0.4-0.3-0.7-0.9-1.1-1.5C9.7,8.3,9.3,7.6,8.7,7C8.1,6.5,7.4,6.2,6.5,6.1z M2,8h3v1H2V8z M2,10h3v1H2V10
		z M12,11v1.2c0,0,0,0.8,1,0.8s1-0.8,1-0.8V11H12z"/>
	<path id="path5209" fill="#FFFFFF" d="M1,7.8V6.5h3.9v1.3H1z"/>
	<path id="path5213" fill="#FFFFFF" d="M0,0"/>
	<path id="path5239" fill="#FFFFFF" d="M0,0"/>
	<ellipse id="path4804" fill="#FFFFFF" cx="3.5" cy="5.5" rx="1.5" ry="1.5"/>
</g>
</svg>
